icons/Apollo.svg

<svg xmlns="http://www.w3.org/2000/svg" width="256" height="256" fill="none" viewBox="0 0 256 256"><rect width="256" height="256" fill="url(#paint0_linear_194_8)" rx="60"/><path fill="#fff" d="M140.279 73.0456L113.618 72.9995L76.6763 170.886L100.79 170.928L106.819 154.342L143.194 154.404L136.317 136.038L112.371 135.996L127.28 93.875L156.214 171.023L180.329 171.065L140.279 73.0456Z"/><path fill="#fff" d="M233.142 99.1236C233.074 98.7932 232.975 98.4692 232.845 98.1559C232.814 98.048 232.708 97.8484 232.708 97.8484C232.256 96.9105 231.54 96.115 230.647 95.5565C229.753 94.998 228.719 94.7 227.668 94.6979C226.21 94.6954 224.82 95.2609 223.805 96.2701C222.79 97.2794 222.232 98.6496 222.255 100.079C222.264 100.685 222.381 101.266 222.577 101.808L222.561 101.814C225.148 110.399 226.527 119.272 226.659 128.183C227.07 154.102 217.16 178.454 198.759 196.75C180.355 215.047 155.659 225.096 129.221 225.051C102.785 225.005 77.7671 214.868 58.7843 196.508C39.7971 178.147 29.1172 153.76 28.7064 127.841C28.2956 101.921 38.2051 77.57 56.6092 59.2739C75.011 40.9767 99.7085 30.9277 126.145 30.9734C149.752 31.0142 172.221 39.1071 190.278 53.9126C189.686 55.448 189.395 57.0838 189.422 58.7349C189.537 66.0138 195.648 71.9221 203.074 71.9349C210.497 71.9477 216.423 66.0604 216.307 58.7814C216.192 51.5024 210.079 45.591 202.656 45.5781C201.036 45.5753 199.489 45.853 198.059 46.3648C178.55 30.1002 153.358 20.2376 125.974 20.1902C65.2366 20.0852 16.7651 68.2735 17.709 127.822C18.6528 187.37 68.6545 235.729 129.392 235.834C190.13 235.939 238.601 187.752 237.658 128.202C237.498 118.13 235.924 108.378 233.142 99.1236V99.1236Z"/><defs><linearGradient id="paint0_linear_194_8" x1="0" x2="256" y1="0" y2="256" gradientUnits="userSpaceOnUse"><stop stop-color="#4010AC"/><stop offset="1" stop-color="#D540A8"/></linearGradient></defs></svg>

<svg xmlns="http://www.w3.org/2000/svg" width="256" height="256" fill="none" viewBox="0 0 256 256"><rect width="256" height="256" fill="url(#a)" rx="60"/><path fill="#fff" d="M140.28 73.05 113.62 73l-36.94 97.89 24.11.04 6.03-16.59 36.37.06-6.87-18.36-23.95-.04 14.91-42.12 28.93 77.14 24.12.04z"/><path fill="#fff" d="M233.14 99.12a5 5 0 0 0-.43-1.27 5.6 5.6 0 0 0-5.04-3.15c-1.46 0-2.85.56-3.86 1.57a5.2 5.2 0 0 0-1.23 5.54h-.02a96 96 0 0 1 4.1 26.37 93.8 93.8 0 0 1-27.9 68.57c-18.4 18.3-43.1 28.35-69.54 28.3a101 101 0 0 1-70.44-28.54c-18.98-18.36-29.66-42.75-30.07-68.67a93.8 93.8 0 0 1 27.9-68.57c18.4-18.3 43.1-28.34 69.54-28.3a101 101 0 0 1 64.13 22.94q-.9 2.33-.86 4.82c.12 7.28 6.23 13.2 13.65 13.2a13.03 13.03 0 0 0 13.24-13.15c-.12-7.28-6.23-13.19-13.65-13.2q-2.44 0-4.6.78a112.7 112.7 0 0 0-72.09-26.17c-60.73-.1-109.2 48.08-108.26 107.63s50.94 107.9 111.68 108.01S238.6 187.75 237.66 128.2a107 107 0 0 0-4.52-29.08"/><defs><linearGradient id="a" x1="0" x2="256" y1="0" y2="256" gradientUnits="userSpaceOnUse"><stop stop-color="#4010AC"/><stop offset="1" stop-color="#D540A8"/></linearGradient></defs></svg>
